images/language.svg

<svg xmlns="http://www.w3.org/2000/svg" width="16" height="16" fill="none">
  <path fill="#000" fill-rule="evenodd" d="M5 0h6v1h2v1h1v1h1v2h1v6h-1v2h-1v1h-1v1h-2v1H5v-1H3v-1H2v-1H1v-2H0V5h1V3h1V2h1V1h2V0ZM3 4h1V3h1v2H4v2H2V5h1V4Zm4-1H5V2h2v1Zm2 0v2h1v2H6V5h1V3h2Zm2 0H9V2h2v1Zm0 0h1v1h1v1h1v2h-2V5h-1V3ZM2 9v2h1v1h1v1h1v1h2v-1h2v1h2v-1h1v-1h1v-1h1V9h-2v2h-1v2H9v-2h1V9H6v2h1v2H5v-2H4V9H2Z" clip-rule="evenodd"/>
</svg>

<svg width="16" height="16" viewBox="0 0 16 16" fill="none" xmlns="http://www.w3.org/2000/svg">
<path fill-rule="evenodd" clip-rule="evenodd" d="M5 0H11V1H13V2H14V3H15V5H16V11H15V13H14V14H13V15H11V16H5V15H3V14H2V13H1V11H0V5H1V3H2V2H3V1H5V0ZM3 4H4V3H5V5H4V7H2V5H3V4ZM7 3H5V2H7V3ZM9 3V5H10V7H6V5H7V3H9ZM11 3H9V2H11V3ZM11 3H12V4H13V5H14V7H12V5H11V3ZM2 9V11H3V12H4V13H5V14H7V13H9V14H11V13H12V12H13V11H14V9H12V11H11V13H9V11H10V9H6V11H7V13H5V11H4V9H2Z" fill="black"/>
</svg>
